app/client/src/assets/icons/blueprintjs/20px/issue-closed.svg

<?xml version="1.0" encoding="UTF-8"?>
<svg width="20px" height="20px" viewBox="0 0 20 20" version="1.1" xmlns="http://www.w3.org/2000/svg" xmlns:xlink="http://www.w3.org/1999/xlink">
    <!-- Generator: Sketch 45.2 (43514) - http://www.bohemiancoding.com/sketch -->
    <title>pt-icon-issue-closed</title>
    <desc>Created with Sketch.</desc>
    <defs></defs>
    <g id="Page-1" stroke="none" stroke-width="1" fill="none" fill-rule="evenodd">
        <g id="pt-icon-issue-closed" fill-rule="nonzero" fill="#10161A">
            <path d="M15.363961,5.89949494 C15.1080387,5.89949494 14.8521164,5.80186386 14.6568542,5.60660172 L12.5355339,3.48528137 C12.1450096,3.09475708 12.1450096,2.4615921 12.5355339,2.07106781 C12.9260582,1.68054352 13.5592232,1.68054352 13.9497475,2.07106781 L13.9497475,2.07106781 L15.363961,3.48528137 L18.1923882,0.656854249 L18.1923882,0.656854249 C18.5829124,0.266329958 19.2160774,0.266329958 19.6066017,0.656854249 L19.6066017,0.656854249 L19.6066017,0.656854249 C19.997126,1.04737854 19.997126,1.68054352 19.6066017,2.07106781 L16.0710678,5.60660172 C15.8758057,5.80186386 15.6198833,5.89949494 15.363961,5.89949494 Z M11.7800713,0.157963713 C11.5440096,0.289890269 11.3219875,0.456187114 11.1213203,0.656854249 C10.7333913,1.04478332 10.4739126,1.51252121 10.3428842,2.00721562 C10.2291872,2.00242129 10.1148763,2 10,2 C5.581722,2 2,5.581722 2,10 C2,14.418278 5.581722,18 10,18 C14.418278,18 18,14.418278 18,10 C18,8.96271993 17.802586,7.97154835 17.4432801,7.0620073 C17.4573948,7.04843155 17.471396,7.03470064 17.4852814,7.02081528 L18.9572143,5.54888235 C19.6246377,6.88938345 20,8.40085644 20,10 C20,15.5228475 15.5228475,20 10,20 C4.4771525,20 0,15.5228475 0,10 C0,4.4771525 4.4771525,0 10,0 C10.6075334,0 11.2024131,0.0541771462 11.7800713,0.157963713 Z M11,16 L9,16 L9,14 L11,14 L11,16 Z M11,13 L9,13 L9,4 L11,4 L11,13 Z" id="pt-icon-issue-closed-20"></path>
        </g>
    </g>
</svg>

<svg xmlns="http://www.w3.org/2000/svg" width="20" height="20"><path fill-rule="nonzero" d="M15.364 5.9a.997.997 0 0 1-.707-.293l-2.121-2.122a1 1 0 1 1 1.414-1.414l1.414 1.414L18.192.657a1 1 0 0 1 1.414 1.414l-3.535 3.536a.997.997 0 0 1-.707.292ZM11.78.157a3.002 3.002 0 0 0-1.437 1.85 8 8 0 1 0 7.1 5.055l.042-.042 1.472-1.472A9.959 9.959 0 0 1 20 10c0 5.523-4.477 10-10 10S0 15.523 0 10 4.477 0 10 0c.608 0 1.202.054 1.78.158ZM11 16H9v-2h2v2Zm0-3H9V4h2v9Z"/></svg>
